!!!OTL: St. Michael. / A. Aeltere Form
!!!ARE: Europa, Mitteleuropa, Deutschland
!!!SCT: A0609
!!!TXL: @@GMH
!!!YEM: Copyright 1995, estate of Helmut Schaffrath.
**kern	**text
*M6/4	*
*met(3)	*
*k[f#]	*
*g:	*
!LO:TX:a:t=moll.	!
{4e	O
=1	=1
2e	un-
4f#	-ü-
=2	=2
2g	-ber-
4g	-wind-
=3	=3
2a	-li-
4a	-cher
=4	=4
2b/;	Held,
4g	Sanct
=5	=5
2a	Mi-
4a	-cha-
=6	=6
2b;}	-el!
{4b	Komm
=7	=7
2b	uns
4cc	ʒu
=8	=8
2dd	Hilf,
4b	ʒieh
=9	=9
2b/	mit
4a	ʒu
=10	=10
2g;}	Feld!
{4b	Hilf
=11	=11
2a	uns
4g	hie
=12	=12
4f#	käm-
4e;}	-pfen,}
{4b	die
=11	=11
2a	Fein-
4g	-de
=12	=12
4f#	däm-
4e;}	-pfen}
{4g	Sanct
=15	=15
2a	Mi-
4f#	-cha-
=16	=16
2e;}	-el!
==	==
!!!GTL: Geistliche Volkslieder
!!!AGN: Romanze, Ballade, Lied, religioeses Lied
!! Wuerzburger Gsgb 1649 und bei Ditfurth, Fraenk. Vl I.2, No. 55.
!!!ONB: ESAC (Essen Associative Code) Database: ALTDEU
!!!AMT: simple triple
!!!AIN: vox
!!!EED: Helmut Schaffrath
!!!EEV: 1.0
!!!URL-scan: https://rosdok.uni-rostock.de/mcrviewer/recordIdentifier/rosdok_ppn738218359/iview2/phys_0790.iview2?x=201.48295004982492&y=504.6417416711338&scale=0.7052832894250849&rotation=0&layout=singlePageLayout&logicalDiv=log_0021
!!!ENC: Anna Maria Matuszewska
!!!EEV: 2024/22/03
*-	*-
